packages/foundations/assets/icons/functional/images/business & payment/cash_14.svg

<svg width="14" height="14" viewBox="0 0 14 14" fill="none" xmlns="http://www.w3.org/2000/svg">
<g clip-path="url(#clip0_184_13)">
<path fill-rule="evenodd" clip-rule="evenodd" d="M8.77978 7.00051C9.99175 7.0057 11.1591 7.45832 12.0578 8.27151L12.3978 8.6055C12.5235 8.73144 12.5966 8.90052 12.6021 9.07839C12.6076 9.25625 12.5452 9.42954 12.4275 9.56301C12.3098 9.69649 12.1457 9.78014 11.9685 9.79695C11.7914 9.81376 11.6145 9.76247 11.4738 9.65351L11.2218 9.40951C10.6168 8.80451 9.79978 8.41951 8.96178 8.39151C8.12478 8.36251 7.93778 8.39351 7.69878 8.39151C7.58353 8.38681 7.47014 8.42162 7.37739 8.49019C7.28463 8.55875 7.21809 8.65695 7.18878 8.76851C7.17078 8.83851 7.21478 8.91551 7.30478 8.93151C7.36478 8.94151 7.98478 8.99951 9.16778 9.10351C9.25931 9.11204 9.34827 9.13852 9.42957 9.18143C9.51087 9.22434 9.58292 9.28285 9.6416 9.35361C9.70029 9.42437 9.74447 9.50599 9.77161 9.59382C9.79875 9.68166 9.80832 9.77397 9.79978 9.86551C9.76678 10.2225 9.48178 10.5215 9.11978 10.5005C8.47104 10.4507 7.82299 10.3923 7.17578 10.3255C6.82778 10.2885 6.52378 10.1795 6.15878 10.0635C5.91578 9.98651 5.14778 9.74751 3.85578 9.34551C3.67169 9.28867 3.47478 9.2883 3.29048 9.34445C3.10617 9.4006 2.94292 9.51068 2.82178 9.66051C2.78178 9.71051 2.78378 9.80451 2.90078 9.85051L5.58878 10.8785C6.07633 11.0646 6.59047 11.1716 7.11178 11.1955L11.9028 11.2005C12.0884 11.2005 12.2665 11.2743 12.3978 11.4055C12.529 11.5368 12.6028 11.7149 12.6028 11.9005C12.6028 12.2595 12.3048 12.6005 11.9028 12.6005H7.33578C6.65378 12.6005 5.87278 12.4765 5.33078 12.2725C4.97078 12.1375 3.98378 11.7625 2.37278 11.1495C2.14907 11.0641 1.94876 10.927 1.78826 10.7493C1.62776 10.5716 1.51164 10.3584 1.44939 10.1272C1.38715 9.89599 1.38056 9.65332 1.43017 9.41907C1.47977 9.18482 1.58416 8.96564 1.73478 8.77951C2.01645 8.43144 2.39117 8.17053 2.81535 8.02713C3.23952 7.88374 3.69569 7.86375 4.13078 7.96951L5.81778 8.48651C6.03878 7.61351 6.73578 7.04551 7.57478 7.00051H8.77978ZM4.64178 5.43851C4.84178 5.43851 5.37678 5.31651 5.42378 5.30651C5.57478 5.27551 5.76078 5.37551 5.82378 5.53951C5.94678 5.85751 5.66678 6.02151 5.58378 6.06851C5.42126 6.14356 5.25087 6.20025 5.07578 6.23751C4.88528 6.2793 4.69082 6.30042 4.49578 6.30051C4.07578 6.30051 3.73278 6.24051 3.46578 6.12151C3.20566 6.00897 2.9874 5.81765 2.84178 5.57451C2.69378 5.32951 2.59178 5.00951 2.53378 4.61651H2.09578V4.05951H2.51378V3.62051H2.09578V3.06351H2.53378C2.60878 2.66151 2.72378 2.33951 2.87778 2.09951C3.03278 1.85851 3.24478 1.68151 3.51478 1.56951C3.78478 1.45551 4.13178 1.39951 4.55478 1.39951C4.90278 1.39951 5.21478 1.44451 5.49478 1.53551C5.68178 1.59951 5.86778 1.79251 5.80378 2.04251C5.71378 2.33951 5.42078 2.38051 5.21878 2.32751C5.02634 2.27572 4.82806 2.24883 4.62878 2.24751C4.32878 2.24751 4.11178 2.31151 3.97878 2.43751C3.84578 2.56351 3.75378 2.77251 3.70078 3.06351H4.92578V3.62051H3.68578V4.05851H4.92578V4.61551H3.70078C3.74078 4.92551 3.82878 5.13951 3.96578 5.25851C4.10278 5.37851 4.32778 5.43751 4.64178 5.43751V5.43851Z" fill="#1A1C1F"/>
</g>
<defs>
<clipPath id="clip0_184_13">
<rect width="14" height="14" fill="white"/>
</clipPath>
</defs>
</svg>

<svg xmlns="http://www.w3.org/2000/svg" width="14" height="14" fill="none"><g clip-path="url(#a)"><path fill="#1A1C1F" fill-rule="evenodd" d="M8.78 7a4.92 4.92 0 0 1 3.278 1.272l.34.333a.7.7 0 0 1-.924 1.049l-.252-.244c-.605-.605-1.422-.99-2.26-1.018-.837-.03-1.024.002-1.263 0a.506.506 0 0 0-.51.377c-.018.07.026.147.116.163q.09.015 1.863.172a.7.7 0 0 1 .632.762c-.033.357-.318.656-.68.635a74 74 0 0 1-1.944-.175c-.348-.037-.652-.146-1.017-.263l-2.303-.717a.96.96 0 0 0-1.034.315c-.04.05-.038.144.079.19l2.688 1.027a4.9 4.9 0 0 0 1.523.317l4.79.005a.7.7 0 0 1 .7.7c0 .36-.297.7-.7.7H7.337c-.682 0-1.463-.123-2.005-.327q-.54-.204-2.958-1.123a1.516 1.516 0 0 1-.638-2.37 2.36 2.36 0 0 1 2.396-.81l1.687.517c.22-.873.918-1.441 1.757-1.486zM4.642 5.44c.2 0 .735-.122.782-.132.15-.031.337.069.4.233.123.318-.157.482-.24.529a2.4 2.4 0 0 1-.508.169q-.286.062-.58.063-.63 0-1.03-.18a1.35 1.35 0 0 1-.624-.546q-.222-.368-.308-.958h-.438V4.06h.418v-.44h-.418v-.556h.438q.113-.604.344-.964.232-.362.637-.53.405-.17 1.04-.17.521 0 .94.136c.187.064.373.257.309.507-.09.297-.383.338-.585.285a2.3 2.3 0 0 0-.59-.08q-.45 0-.65.19-.199.19-.278.626h1.225v.557h-1.24v.438h1.24v.557H3.7q.06.465.265.643.205.18.676.179" clip-rule="evenodd"/></g><defs><clipPath id="a"><path fill="#fff" d="M0 0h14v14H0z"/></clipPath></defs></svg>
